X:1
T:Again He’ll Come
T:William Marion Runyan, 1919
T:Again He’ll Come
T:Public Domain
T:Public Domain
C:William Marion Runyan, 1919
Z:Public Domain
%%score ( 1 2 ) ( 3 4 )
L:1/8
M:4/4
K:Bb
V:1 treble 
V:2 treble 
V:3 bass 
V:4 bass 
V:1
 [DF] | [DF]2 [DB]2 [DB]3 [Ec] | [Fd]>[Ec] [DB][DF] [EG] [EG]2 [EG] | [Gc]2 [Gd]2 [Ge]3 [EG] | %4
w: 1.~From|Ol- ive’s hill, the|mul- ti- tude up- gaz- ing, Be-|held, un- til the|
w: 2.~A-|gain, but not in|weak- ness or in sor- row; A-|gain, but not for|
w: 3.~O|Zi- on, clothe thy-|self in rai- ment ho- ly; Lift|up thine eyes to|
 [EA][EG] [EG]>[EA] [DF]3 [DF] | [FB]2 [Fc]2 [Fd]3 [Fd] | [Fd][_AB][Ac][Ad] [Ge] [EG]2 [EB] | %7
w: Sav- ior passed from view; But|ra- diant her- alds|ut- tered words of prom- ise, He|
w: bit- ter pain and loss; The|Son of God shall|come in glo- ry splen- did, A-|
w: greet thy com- ing king; Re-|joice, re- joice, no|more be robed in sor- row, Re-|
 [=EB]3 [EB] [Fd]3 [FB] | [EB][EA][EG][EA] [DB]3 ||"^Refrain" [Fd] | [Fd]3 [DF] [DF]3 [DF] | %11
w: who has gone shall|come a- gain to you.|||
w: gain, but not to|bear shame’s bit- ter cross.|||
w: joice, O Zi- on,|lift thy voice and sing.|||
 [FB]>[FB] [Fc][FB] [EB] [EA]2 [Fe] | [Fe]3 [EA] [EA]3 [EG] | [EF][EA][Fc][F^c] [Fd]3 [Fd] | %14
w: |||
w: |||
w: |||
 [Fd]3 [DF] [DF]3 [DF] | [FB]>[FB] [Fc](F/_A/) [Ge] [Ge]2 [Be] | [B=e]3 [Be] [Bf]3 [FB] | %17
w: |||
w: |||
w: |||
 !>![Fd]!>![Bd][Ae][FA] [FB]3 |] %18
w: |
w: |
w: |
V:2
 x | x8 | x8 | x8 | x8 | x8 | x8 | x8 | x7 || x | x8 | x8 | x8 | x8 | x8 | x3 d x4 | x8 | x7 |] %18
V:3
 [B,,B,] | [B,,B,]2 [B,,F,]2 [B,,F,]3 [B,,F,] | %2
w: ~|~ ~ ~ ~|
 [B,,B,]>[B,,B,] [B,,F,][B,,B,] [E,B,] [E,B,]2 [E,B,] | [E,B,]2 [D,=B,]2 [C,C]3 [C,C] | %4
w: ~ ~ ~ ~ ~ ~ ~|~ ~ ~ ~|
 [F,C][F,C] [F,A,]>[F,A,] [B,,B,]3 [B,,B,] | [D,B,]2 [C,A,]2 [B,,B,]3 [B,,B,] | %6
w: ~ ~ ~ ~ ~ ~|~ ~ ~ ~|
 B,[B,D][_A,D][F,B,] [E,B,] [E,B,]2 [G,B,] | [_G,B,]3 [G,B,] [F,B,]3 [F,D] | %8
w: ~ ~ ~ ~ ~ ~ ~|~ ~ ~ ~|
 [F,C][F,C][F,A,]F, [B,,F,]3 || [B,,B,] | [B,,B,]3 [B,,B,] [B,,B,]3 [B,,B,] | %11
w: ~ ~ ~ ~ A-|a-|gain, the na- tions|
 [D,B,]>[D,B,] [D,B,][D,B,] [C,F,] [C,F,]2 [F,A,] | [F,A,]3 [F,C] [F,C]3 [F,B,] | %13
w: shall be- hold Him! A- gain, a-|gain, en- robed in|
 [F,A,]F,[F,A,][F,A,] [B,,B,]3 [B,,B,] | [B,,B,]3 [B,,B,] [B,,B,]3 [B,,B,] | %15
w: ma- jes- ty; In clouds of|ry ev- ery eye|
 [D,B,]>[D,B,] [C,A,][B,,B,] [E,B,] [E,B,]2 [G,C] | [_G,^C]3 [G,C] [F,D]3 [F,D] | %17
w: shall see Him, A- gain, a- gain,|the King of Glo-|
 !>![F,B,]!>![F,B,]!>![F,C][F,E] [B,,D]2 x |] %18
w: ry see! * * *|
V:4
 x | x8 | x8 | x8 | x8 | x8 | B, x7 | x8 | x3 F, x3 || x | x8 | x8 | x8 | x F, x6 | x8 | x8 | x8 | %17
w: ||||||~||gain,|||||glo-||||
 x7 |] %18
w: |

